build/assets/fonts/ece9e63914c3f788968b357cf6189e95.svg

<svg width="100" height="60" viewBox="0 0 100 60" version="1.1" xmlns="http://www.w3.org/2000/svg" xmlns:xlink="http://www.w3.org/1999/xlink"><title>PayU-light</title><desc>Created with Sketch.</desc><g id="Light-Payment-badges" stroke="none" stroke-width="1" fill="none" fill-rule="evenodd" transform="translate(-450.000000, -1289.000000)"><g id="PayU-light" transform="translate(450.000000, 1289.000000)"><rect id="Rectangle" fill="#FFF" x="0" y="0" width="100" height="60" rx="4"/><path d="M72.8415357,25.8183613 C72.4355763,25.8181453 72.106531,25.4891 72.106747,25.0831406 L72.1078273,21.8348172 L71.8368996,21.8348172 C70.1564567,21.8348172 69.5314218,22.1122264 69.5314218,23.6429461 L69.5314218,27.2248518 C69.5312058,27.2324136 69.5303416,27.2399754 69.5303416,27.2475372 L69.5303416,28.0326657 C69.5299095,28.0598881 69.5281811,28.085166 69.5281811,28.1132526 L69.5281811,33.1178527 C69.5281811,33.7292764 69.4104334,34.2160388 69.1671602,34.5941276 C68.7091326,35.2999655 67.8019354,35.6210169 66.3505063,35.6229614 C64.8997254,35.6210169 63.9927442,35.3001815 63.5345006,34.5949918 C63.2910113,34.2166869 63.1730476,33.7297085 63.1730476,33.1178527 L63.1730476,28.1132526 C63.1730476,28.085166 63.1713192,28.0598881 63.1708871,28.0326657 L63.1708871,27.2475372 C63.1708871,27.2399754 63.1698069,27.2324136 63.1695908,27.2248518 L63.1695908,23.6429461 C63.1695908,22.1122264 62.544772,21.8348172 60.8643291,21.8348172 L60.3352207,21.8348172 C58.6545618,21.8348172 58.029743,22.1122264 58.029743,23.6429461 L58.029743,33.1178527 C58.029743,34.6420909 58.3734797,35.9327782 59.0376198,36.9728466 C60.3203132,38.9888163 62.8051132,40.0625887 66.3375433,40.0625887 C66.3420803,40.0625887 66.3461853,40.0623726 66.3505063,40.0623726 C66.3550434,40.0623726 66.3591483,40.0625887 66.3636854,40.0625887 C69.8961155,40.0625887 72.3806994,38.9888163 73.6636089,36.9728466 C74.3277489,35.9327782 74.6714857,34.6420909 74.6714857,33.1178527 L74.6714857,25.8190095 L72.8415357,25.8183613" id="Fill-1" fill="#95BF3E"/><path d="M80.6105054,20.5843153 L77.8465679,20.5832351 C77.544961,20.5832351 77.3006076,20.3386656 77.3008236,20.0372748 L77.3016878,17.2389852 C77.3019039,16.9373783 77.5462573,16.6930249 77.8478642,16.693241 L80.6120177,16.6941052 C80.9134085,16.6943212 81.157762,16.9386746 81.1575459,17.2402815 L81.1566817,20.0385711 C81.1564657,20.3399619 80.9121122,20.5843153 80.6105054,20.5843153" id="Fill-3" fill="#95BF3E"/><path d="M76.9272718,16.693457 L75.0500067,16.6928089 C74.8451905,16.6928089 74.6792635,16.5266658 74.6792635,16.3218497 L74.6799117,14.421251 C74.6801277,14.216651 74.8460547,14.050724 75.0508709,14.050724 L76.928136,14.0513721 C77.1329522,14.0513721 77.2988791,14.2175152 77.2988791,14.4223313 L77.298231,16.3229299 C77.2980149,16.52753 77.132088,16.693457 76.9272718,16.693457" id="Fill-4" fill="#95BF3E"/><path d="M29.4015034,27.5996999 C29.4015034,29.8481403 28.8274565,31.0664506 25.7988568,31.0664506 L21.1369133,31.0664506 L21.1369133,25.263759 C21.1369133,24.4591859 21.4361436,24.1599556 22.2407167,24.1599556 L25.7988568,24.1599556 C28.080569,24.1599556 29.4015034,24.7227679 29.4015034,27.5996999 L29.4015034,27.5996999 Z M25.7988568,21.8315764 L21.7788001,21.8315764 C19.6306073,21.8315764 18.6726382,22.7895456 18.6726382,24.9377384 L18.6726382,38.7360369 C18.6726382,39.565888 18.9390288,39.8322786 19.7688798,39.8322786 L20.0406717,39.8322786 C20.8705227,39.8322786 21.1369133,39.565888 21.1369133,38.7360369 L21.1369133,33.3678234 L25.7988568,33.3678234 C29.9379575,33.3678234 31.8657785,31.5348487 31.8657785,27.5996999 C31.8657785,23.6643351 29.9379575,21.8315764 25.7988568,21.8315764 L25.7988568,21.8315764 Z" id="Fill-5" fill="#95BF3E"/><path d="M40.5371923,33.6305412 L40.5371923,35.5220657 C40.5371923,37.06402 39.9655219,37.9567418 37.0432192,37.9567418 C35.1125895,37.9567418 34.174065,37.2580336 34.174065,35.8208639 C34.174065,34.2445575 35.1156142,33.6305412 37.5321421,33.6305412 L40.5371923,33.6305412 L40.5371923,33.6305412 Z M37.0432192,25.7883303 C35.4500608,25.7883303 34.4516902,25.9881772 34.0729532,26.063795 C33.4025477,26.2096293 33.1221138,26.3937045 33.1221138,27.1561477 L33.1221138,27.3734948 C33.1221138,27.672293 33.1664042,27.8792696 33.2612504,28.0248879 C33.3716524,28.1944877 33.5496782,28.2804759 33.7903588,28.2804759 C33.9076744,28.2804759 34.0437863,28.2608153 34.2060405,28.2201978 C34.5890985,28.1244873 35.8130261,27.9265848 37.1518927,27.9265848 C39.5565378,27.9265848 40.5371923,28.5926693 40.5371923,30.225581 L40.5371923,31.6824114 L37.5049197,31.6824114 C33.6067156,31.6824114 31.791241,32.9972964 31.791241,35.8208639 C31.791241,38.5595235 33.6661296,40.0677739 37.0704416,40.0677739 C41.1159923,40.0677739 42.9200162,38.6910984 42.9200162,35.6035168 L42.9200162,30.225581 C42.9200162,27.2397594 40.9975965,25.7883303 37.0432192,25.7883303 L37.0432192,25.7883303 Z" id="Fill-6" fill="#95BF3E"/><path d="M56.2531575,26.4315134 C56.0816132,26.2156787 55.7566728,26.1858637 55.4313003,26.1858637 L55.1867309,26.1858637 C54.3756763,26.1858637 54.0574335,26.4362665 53.8778953,27.2146975 L51.6236215,36.5848194 C51.3421074,37.73637 50.9471666,37.9470195 50.2704956,37.9470195 C49.4421569,37.9470195 49.110519,37.7493331 48.7801773,36.5804984 L46.2271054,27.2101604 C46.0158077,26.4252479 45.7040465,26.1858637 44.8925598,26.1858637 L44.6752127,26.1858637 C44.3474637,26.1858637 44.0214431,26.2161108 43.8540037,26.4345381 C43.6863483,26.6533976 43.7429536,26.9798503 43.8293739,27.3006857 L46.4096683,36.7520427 C46.893622,38.5608198 47.4691813,40.0580516 49.6186704,40.0580516 C50.0200927,40.0580516 50.3910519,40.0023105 50.6997884,39.898174 C50.0479633,41.9487119 49.3844714,42.8533165 47.4285637,43.0540277 C47.0316785,43.0870834 46.7737138,43.1439048 46.629824,43.3366221 C46.480749,43.536469 46.514669,43.8225202 46.5680335,44.0785404 L46.6218301,44.3207333 C46.7387136,44.881169 46.9374803,45.2285787 47.5666202,45.2285787 C47.6327317,45.2285787 47.7038124,45.2251219 47.7800783,45.2184243 C50.7006527,45.0274354 52.2655084,43.4550179 53.1813476,39.791445 L56.3056578,27.2939881 C56.3797632,26.9733688 56.4244857,26.646916 56.2531575,26.4315134" id="Fill-7" fill="#95BF3E"/><path d="M76.5647386,20.1470526 L72.8432641,20.1457563 C72.4373047,20.1455402 72.1082594,20.4745856 72.1080433,20.8803289 L72.1078273,21.399715 L72.3660079,21.399715 C74.0466669,21.399715 74.6714857,21.6771242 74.6714857,23.2078439 L74.6714857,25.3839072 L76.5630102,25.3845554 C76.9689696,25.3847714 77.2980149,25.0557261 77.298231,24.6497667 L77.2995273,20.8822734 C77.2997433,20.476314 76.970698,20.1470526 76.5647386,20.1470526" id="Fill-9" fill="#95BF3E"/></g></g></svg>

<svg width="100" height="60" xmlns="http://www.w3.org/2000/svg"><g fill="none" fill-rule="evenodd"><rect fill="#FFF" width="100" height="60" rx="4"/><path d="M72.842 25.818a.735.735 0 0 1-.735-.735v-3.248h-.27c-1.68 0-2.306.277-2.306 1.808v4.39c-.001.027-.003.052-.003.08v5.005c0 .611-.118 1.098-.36 1.476-.459.706-1.366 1.027-2.817 1.029-1.451-.002-2.358-.323-2.816-1.028-.244-.378-.362-.865-.362-1.477v-5.005l-.002-.08v-.785l-.001-.023v-3.582c0-1.53-.625-1.808-2.306-1.808h-.529c-1.68 0-2.305.277-2.305 1.808v9.475c0 1.524.343 2.815 1.008 3.855 1.282 2.016 3.767 3.09 7.3 3.09h.026c3.532 0 6.017-1.074 7.3-3.09.664-1.04 1.007-2.33 1.007-3.855v-7.299h-1.83m7.769-5.235h-2.763a.546.546 0 0 1-.546-.547V17.24c0-.302.245-.546.547-.546l2.764.001c.301 0 .546.245.546.546l-.001 2.799a.546.546 0 0 1-.546.545m-3.684-3.892H75.05a.37.37 0 0 1-.37-.371v-1.9a.37.37 0 0 1 .37-.371h1.878a.37.37 0 0 1 .37.371v1.9a.37.37 0 0 1-.37.371M29.402 27.6c0 2.248-.575 3.466-3.603 3.466h-4.662v-5.802c0-.805.3-1.104 1.104-1.104h3.558c2.282 0 3.603.563 3.603 3.44zm-3.603-5.768h-4.02c-2.148 0-3.106.958-3.106 3.106v13.798c0 .83.266 1.096 1.096 1.096h.272c.83 0 1.096-.266 1.096-1.096v-5.368h4.662c4.139 0 6.067-1.833 6.067-5.768 0-3.936-1.928-5.768-6.067-5.768zM40.537 33.63v1.892c0 1.542-.571 2.435-3.494 2.435-1.93 0-2.869-.699-2.869-2.136 0-1.576.942-2.19 3.358-2.19h3.005zm-3.494-7.842c-1.593 0-2.591.2-2.97.276-.67.146-.95.33-.95 1.092v.217c0 .3.043.506.138.652.11.17.289.255.53.255.117 0 .253-.02.415-.06.383-.096 1.607-.293 2.946-.293 2.405 0 3.385.666 3.385 2.299v1.456h-3.032c-3.898 0-5.714 1.315-5.714 4.139 0 2.739 1.875 4.247 5.28 4.247 4.045 0 5.849-1.377 5.849-4.464v-5.378c0-2.986-1.922-4.438-5.877-4.438zm19.21.644c-.171-.216-.496-.246-.822-.246h-.244c-.811 0-1.13.25-1.31 1.029l-2.253 9.37c-.282 1.151-.677 1.362-1.354 1.362-.828 0-1.16-.198-1.49-1.367l-2.553-9.37c-.211-.785-.523-1.024-1.334-1.024h-.218c-.328 0-.654.03-.821.249-.168.218-.111.545-.025.866l2.58 9.451c.485 1.809 1.06 3.306 3.21 3.306.401 0 .772-.056 1.08-.16-.651 2.05-1.315 2.955-3.27 3.156-.397.033-.655.09-.8.283-.148.2-.114.486-.061.742l.054.242c.117.56.315.908.945.908.066 0 .137-.004.213-.01 2.92-.192 4.486-1.764 5.401-5.428l3.125-12.497c.074-.32.118-.647-.053-.862m20.312-6.285l-3.722-.001a.735.735 0 0 0-.735.734v.52h.258c1.68 0 2.305.277 2.305 1.808v2.176h1.892a.735.735 0 0 0 .735-.734l.002-3.768a.735.735 0 0 0-.735-.735" fill="#95BF3E"/></g></svg>
